X: 175
T: Jmtpolska efter Carl Sved
R: Polska
S: efter Carl Sved
S: Knd genom Hulling
O: Hlsingland/Jmtland
D: Hulling
N: SL Hlsingland 167
N: http://www.smus.se/earkiv/fmk/browselarge.phplang=sw&katalogid=Hs15&bildnr=00011|SMUS
Z: Hkan Lidn, 2008-09-28
M: 9/8
L: 1/4
K: D
A, D/-D3/2 F E/ | C/E/ E D F A/ | B/A/ G F E D/ | C/E/D/- D3/2 A,3/2- |
A, D/-D3/2 F E/ | C/E/ E D F A/ | B/A/ G F E D/ | C/E D3 :|
|: A f e c e/ | a/f/ d c A3/2- | A G/ E/G/E/ D/F/D/ | C/E/D/- D3/2 A,3/2- |
A, f e c e/ | a/f/ d c A3/2- | A G/ E/G/E/ D/F/D/ | C/E D3 :|]
